X:1
T: Reel de l'Aveugle
T: Blind Man's Reel
R:Reel
Q: 232
K:D
M:4/4
L:1/8
|:A,D D2 ED B,D|A,D FA BA FD|CE AB cB AG|FA de fd AG|
A,D D2 ED B,D|A,D FA BA FD|CE Ac ec AF|Dd AF D2 D2|
fd AF dA FA|BA ^GB ed cB|Ac de fd gf|ec df ec de|
fd AF dA FA|BA ^GB ed cB|Af ed cA Bc|d2 dc d2 d2:|
